X: 26535
T: Michael's
R: mazurka
M: 3/4
K: Gmajor
D2|:"G"G3G A/B/c|B2 B3/2B/ A/G/F|"C"EG GB AG|"C"Fd "D"Dc DF|
"G"G2 GA Bc|Bd dc BG|"C"Ec cB AF|"G"G4D2:|
K:Gm
|:"Gm"G2GA Bc|d2dc BG|"D"A^F AF DF|"Gm"GA B/c/d g2|
DG GA Bc|d3c BG|"D"A^F AF DF|1 "Gm"G4 D2:|2 "Gm"G4 =e^f||
K:G
|:"G"g6|d4 cB|"Am"A2a3g|"D"fd ^cd ef|"G"g4b2|g4 d/c/B|
"Am"A2a3g|"D"fd cB AF|"G"G2AB G2|"D"A2Bc A2|"G"B2cd B2|"C"c2de c2|
"G"d2g2 eg|1 "D"f3g a/g/f|"G"g3a gf|g4 d/e/f:|2 "D"f2d2 c/B/A|"G"G3B A/G/F|G6||

